X:131
T:Lady Boyd's Reel. Ru2.131
%%VWML:RutherfordVol2-2249-p66-0
F:http://www.vwml.org/record/RutherfordVol2/2249/p66
Z:vmp.Steve Mansfield 2015 www.village-music-project.org.uk
M:C|
L:1/8
R:Reel
W:The first & 2nd Cou. foot it & Right & Left half
W:Round .| Foot it & Right & Left back again :|
W:Cross over two Cou. Lead up to the Top & cast
W:off .|. Foot it corners & turn .|| Foot it the other
W:Corners & turn .||. Lead outsides & turn :|
Q:1/2=60
K:G
|:B | G/G/G Gd BGdB | A/A/A Ac AFFA | G/G/G Gd BGdB | cAdB G/G/G G :|
|: f | g>agd g>agd | =f>gfc AFFf |1 g>agd g>agB | cAdB G/G/G G :|
[2 (g/f/e) (f/e/d) (e/d/c) (d/c/B) | cAdB G/G/G G |]
T:Pease Straw. Ru2.132
B:RUTHERFORD Complete Collection of 200 Country Dances Vol.2; 1759.
Z:vmp.Steve Mansfield 2015 www.village-music-project.org.uk
M:C|
L:1/8
W:Cast off one Cou. & Right Hands across
W:With the 3d Cou. .| Cast up & Left Hands
W:Across with the 2d Cou. :| Gallop Down
W:One Cou. up again & cast off .|. Hands
W:Round all Six :|
Q:1/2=60
K:G
|:f | defd gefd | eA A/A/A c2ce | defd gefd | ef/g/ (a/g/f/e/) d2d :|
|: (f/g/) | afdf (a/g/f/e/) df | eA A/A/A c2ce |1 afdf a/g/f/e/ df | eA A/A/A d2d :|
[2 afge fd eA | Agfe d2d |]
